packages/elvis-assets-icons/icons/svg/src/add_circle-filled.svg

<svg width="24" height="24" viewBox="0 0 24 24" fill="none" xmlns="http://www.w3.org/2000/svg">
<path d="M12 24C5.383 24 0 18.617 0 12C0 5.383 5.383 0 12 0C18.617 0 24 5.383 24 12C24 18.617 18.617 24 12 24Z" fill="black"/>
<path d="M12 17.25C11.586 17.25 11.25 16.914 11.25 16.5V12.75H7.5C7.086 12.75 6.75 12.414 6.75 12C6.75 11.586 7.086 11.25 7.5 11.25H11.25V7.5C11.25 7.086 11.586 6.75 12 6.75C12.414 6.75 12.75 7.086 12.75 7.5V11.25H16.5C16.914 11.25 17.25 11.586 17.25 12C17.25 12.414 16.914 12.75 16.5 12.75H12.75V16.5C12.75 16.914 12.414 17.25 12 17.25Z" fill="white"/>
</svg>

<svg width="24" height="24" fill="none" xmlns="http://www.w3.org/2000/svg"><path d="M12 24C5.383 24 0 18.617 0 12S5.383 0 12 0s12 5.383 12 12-5.383 12-12 12z" fill="#000"/><path d="M12 17.25a.75.75 0 01-.75-.75v-3.75H7.5a.75.75 0 010-1.5h3.75V7.5a.75.75 0 011.5 0v3.75h3.75a.75.75 0 010 1.5h-3.75v3.75a.75.75 0 01-.75.75z" fill="#fff"/></svg>
